wp-content/themes/watts/images/pa-05.svg

<svg enable-background="new 0 0 110 100" height="100" viewBox="0 0 110 100" width="110" xmlns="http://www.w3.org/2000/svg" xmlns:xlink="http://www.w3.org/1999/xlink"><linearGradient id="a" gradientUnits="userSpaceOnUse" x1="23.7343" x2="89.3343" y1="36.2156" y2="101.8157"><stop offset="0" stop-color="#109bfb"/><stop offset="1" stop-color="#1d3ec0"/></linearGradient><path d="m108.9 75.9c-.6-1.9-1.5-3.6-2.6-5.1v-16.6l-3.6-3.8h-13.6v3h12.3l1.9 2v12.5c-.8-.6-1.6-1-2.4-1.4v-9.7h-3v8.8c-.6-.1-1.2-.1-1.7-.1-5.7 0-10.8 4.1-12.8 10.2h-7.6c-2.2 0-2.6-1.1-2.7-1.4v-7.5h-17v-15.1h19.3v8.3c0 4.4-.3 7-.7 7.6l2.6 1.5c.6-1 .9-3 1-6h7.6v-11.4-3-8.4h-3v8.4h-2.6-.9-1.5c-1.4-4.1-3.7-10.7-7.5-13.5-4-3.1-9.3-3.1-14.4-3.1v-8.3c0-4.2-2.1-7.9-5.8-10.7l-1.8 2.4c1.7 1.2 4.5 3.9 4.5 8.2v43h-2.6v-14.8-13.1-13c0-3.8-2.1-7.2-5.9-9.6l-1.6 2.5c1.7 1.1 4.5 3.4 4.5 7v2c-1.9-.7-3.5-1.1-5.2-1.5-1.4-.3-2.8-.7-4.7-1.2l-1.9-.6v14.5 13.1 14.9h-32.8l-2.5 8.6 2.9.8 1.9-6.4h30.6 1.5 33v4.6c.1 1.5 1.4 4.3 5.7 4.3h6.9c-.1.8-.2 1.7-.2 2.5h3c0-1.2.1-2.5.4-3.6 1.3-5.4 5.5-9.1 10.2-9.1 4.4 0 8.4 3.3 10 8.2.5 1.4.7 2.9.7 4.5h3c-.1-1.9-.4-3.7-.9-5.4zm-29.5-24.2h.9 2.6v8.4h-4.6v-.1-8.3c0 .1 1.1.1 1.1 0zm-10.8-14.1c.5.4.9.8 1.3 1.3h-10.5v3h12.5c1.2 2.2 2.1 4.7 2.8 6.9h-18.7v-13.7c4.9 0 9.4 0 12.6 2.5zm-30.1 4.2h8.9v7.1h-8.9zm0-13.4c1.1.3 2.1.5 2.9.7 2 .5 3.6.9 5.9 1.8v7.9h-8.9zm0 23.5h8.9v14.9h-8.9zm57.6 19.1c-4.3 0-7.9 3.5-7.9 7.9 0 4.3 3.5 7.9 7.9 7.9 4.3 0 7.9-3.5 7.9-7.9-.1-4.4-3.6-7.9-7.9-7.9zm0 12.7c-2.7 0-4.9-2.2-4.9-4.9s2.2-4.9 4.9-4.9 4.9 2.2 4.9 4.9c-.1 2.8-2.3 4.9-4.9 4.9zm-65.4-12.7c-4.3 0-7.9 3.5-7.9 7.9 0 4.3 3.5 7.9 7.9 7.9 4.3 0 7.9-3.5 7.9-7.9-.1-4.4-3.6-7.9-7.9-7.9zm0 12.7c-2.7 0-4.9-2.2-4.9-4.9s2.2-4.9 4.9-4.9 4.9 2.2 4.9 4.9c-.1 2.8-2.2 4.9-4.9 4.9zm-17.8-12.7c-4.3 0-7.9 3.5-7.9 7.9 0 4.3 3.5 7.9 7.9 7.9 4.3 0 7.9-3.5 7.9-7.9s-3.5-7.9-7.9-7.9zm0 12.7c-2.7 0-4.9-2.2-4.9-4.9s2.2-4.9 4.9-4.9 4.9 2.2 4.9 4.9c0 2.8-2.2 4.9-4.9 4.9zm51.6-11.6h-13c-2 0-3.6 1.6-3.6 3.6v3.1c0 2 1.6 3.6 3.6 3.6h13c2 0 3.6-1.6 3.6-3.6v-3.1c0-2-1.6-3.6-3.6-3.6zm.6 6.7c0 .3-.3.6-.6.6h-13c-.3 0-.6-.3-.6-.6v-3.1c0-.3.3-.6.6-.6h13c.3 0 .6.3.6.6zm-6.8-16.8v-4.7h3v4.7z" fill="url(#a)"/></svg>

<svg version="1.1" id="Layer_1" xmlns="http://www.w3.org/2000/svg" xmlns:xlink="http://www.w3.org/1999/xlink" x="0px" y="0px"
	 width="110px" height="100px" viewBox="0 0 110 100" style="enable-background:new 0 0 110 100;" xml:space="preserve">
<style type="text/css">
	.st0{fill:url(#SVGID_1_);}
	.st1{fill:url(#SVGID_2_);}
	.st2{fill:url(#SVGID_3_);}
	.st3{fill:url(#SVGID_4_);}
	.st4{fill:url(#SVGID_5_);}
	.st5{fill:url(#SVGID_6_);}
	.st6{fill:url(#SVGID_7_);}
	.st7{fill:url(#SVGID_8_);}
</style>
<linearGradient id="SVGID_1_" gradientUnits="userSpaceOnUse" x1="23.7343" y1="36.2156" x2="89.3343" y2="101.8157">
	<stop  offset="0" style="stop-color:#109BFB"/>
	<stop  offset="1" style="stop-color:#1D3EC0"/>
</linearGradient>
<path class="st0" d="M108.9,75.9c-0.6-1.9-1.5-3.6-2.6-5.1V54.2l-3.6-3.8H89.1v3h12.3l1.9,2v12.5c-0.8-0.6-1.6-1-2.4-1.4v-9.7h-3
	v8.8c-0.6-0.1-1.2-0.1-1.7-0.1c-5.7,0-10.8,4.1-12.8,10.2h-7.6c-2.2,0-2.6-1.1-2.7-1.4v-7.5h-17V51.7h19.3V60c0,4.4-0.3,7-0.7,7.6
	l2.6,1.5c0.6-1,0.9-3,1-6h7.6V51.7v-3v-8.4h-3v8.4h-2.6h-0.9h-1.5c-1.4-4.1-3.7-10.7-7.5-13.5c-4-3.1-9.3-3.1-14.4-3.1v-8.3
	c0-4.2-2.1-7.9-5.8-10.7l-1.8,2.4c1.7,1.2,4.5,3.9,4.5,8.2v43h-2.6V51.9V38.8v-13c0-3.8-2.1-7.2-5.9-9.6l-1.6,2.5
	c1.7,1.1,4.5,3.4,4.5,7v2c-1.9-0.7-3.5-1.1-5.2-1.5c-1.4-0.3-2.8-0.7-4.7-1.2l-1.9-0.6v14.5l0,0V52l0,0v14.9H2.7l-2.5,8.6l2.9,0.8
	L5,69.9h30.6h1.5h33v4.6c0.1,1.5,1.4,4.3,5.7,4.3h6.9c-0.1,0.8-0.2,1.7-0.2,2.5h3c0-1.2,0.1-2.5,0.4-3.6c1.3-5.4,5.5-9.1,10.2-9.1
	c4.4,0,8.4,3.3,10,8.2c0.5,1.4,0.7,2.9,0.7,4.5h3C109.7,79.4,109.4,77.6,108.9,75.9z M79.4,51.7h0.9h2.6v8.4h-4.6V60v-8.3
	C78.3,51.8,79.4,51.8,79.4,51.7z M68.6,37.6c0.5,0.4,0.9,0.8,1.3,1.3H59.4v3h12.5c1.2,2.2,2.1,4.7,2.8,6.9H56V35.1
	C60.9,35.1,65.4,35.1,68.6,37.6z M38.5,41.8h8.9v7.1h-8.9V41.8z M38.5,28.4c1.1,0.3,2.1,0.5,2.9,0.7c2,0.5,3.6,0.9,5.9,1.8v7.9h-8.9
	L38.5,28.4z M38.5,51.9h8.9v14.9h-8.9V51.9z M96.1,71c-4.3,0-7.9,3.5-7.9,7.9c0,4.3,3.5,7.9,7.9,7.9c4.3,0,7.9-3.5,7.9-7.9
	C103.9,74.5,100.4,71,96.1,71z M96.1,83.7c-2.7,0-4.9-2.2-4.9-4.9c0-2.7,2.2-4.9,4.9-4.9s4.9,2.2,4.9,4.9
	C100.9,81.6,98.7,83.7,96.1,83.7z M30.7,71c-4.3,0-7.9,3.5-7.9,7.9c0,4.3,3.5,7.9,7.9,7.9c4.3,0,7.9-3.5,7.9-7.9
	C38.5,74.5,35,71,30.7,71z M30.7,83.7c-2.7,0-4.9-2.2-4.9-4.9c0-2.7,2.2-4.9,4.9-4.9c2.7,0,4.9,2.2,4.9,4.9
	C35.5,81.6,33.4,83.7,30.7,83.7z M12.9,71C8.6,71,5,74.5,5,78.9c0,4.3,3.5,7.9,7.9,7.9c4.3,0,7.9-3.5,7.9-7.9
	C20.8,74.5,17.3,71,12.9,71z M12.9,83.7c-2.7,0-4.9-2.2-4.9-4.9c0-2.7,2.2-4.9,4.9-4.9c2.7,0,4.9,2.2,4.9,4.9
	C17.8,81.6,15.6,83.7,12.9,83.7z M64.5,72.1h-13c-2,0-3.6,1.6-3.6,3.6v3.1c0,2,1.6,3.6,3.6,3.6h13c2,0,3.6-1.6,3.6-3.6v-3.1
	C68.1,73.7,66.5,72.1,64.5,72.1z M65.1,78.8c0,0.3-0.3,0.6-0.6,0.6h-13c-0.3,0-0.6-0.3-0.6-0.6v-3.1c0-0.3,0.3-0.6,0.6-0.6h13
	c0.3,0,0.6,0.3,0.6,0.6V78.8z M58.3,62v-4.7h3V62H58.3z"/>
</svg>
